icons/midnadark/actions/24/speaker.svg

<?xml version="1.0" encoding="UTF-8" standalone="no"?>
<!-- Created with Inkscape (http://www.inkscape.org/) -->

<svg
   xmlns:dc="http://purl.org/dc/elements/1.1/"
   xmlns:cc="http://creativecommons.org/ns#"
   xmlns:rdf="http://www.w3.org/1999/02/22-rdf-syntax-ns#"
   xmlns:svg="http://www.w3.org/2000/svg"
   xmlns="http://www.w3.org/2000/svg"
   xmlns:sodipodi="http://sodipodi.sourceforge.net/DTD/sodipodi-0.dtd"
   xmlns:inkscape="http://www.inkscape.org/namespaces/inkscape"
   width="22"
   height="22"
   id="svg3869"
   version="1.1"
   inkscape:version="0.91 r13725"
   sodipodi:docname="speaker.svg">
  <defs
     id="defs3871">
    <linearGradient
       id="linearGradient4290-48">
      <stop
         id="stop4292-0"
         offset="0"
         style="stop-color:#a5a5a5;stop-opacity:1;" />
      <stop
         id="stop4294-0"
         offset="1"
         style="stop-color:#f5f2f5;stop-opacity:1;" />
    </linearGradient>
    <inkscape:perspective
       id="perspective4146-9"
       inkscape:persp3d-origin="12 : 8 : 1"
       inkscape:vp_z="24 : 12 : 1"
       inkscape:vp_y="0 : 1000 : 0"
       inkscape:vp_x="0 : 12 : 1"
       sodipodi:type="inkscape:persp3d" />
    <inkscape:perspective
       id="perspective4146"
       inkscape:persp3d-origin="12 : 8 : 1"
       inkscape:vp_z="24 : 12 : 1"
       inkscape:vp_y="0 : 1000 : 0"
       inkscape:vp_x="0 : 12 : 1"
       sodipodi:type="inkscape:persp3d" />
    <inkscape:perspective
       sodipodi:type="inkscape:persp3d"
       inkscape:vp_x="0 : 12 : 1"
       inkscape:vp_y="0 : 1000 : 0"
       inkscape:vp_z="24 : 12 : 1"
       inkscape:persp3d-origin="12 : 8 : 1"
       id="perspective4146-9-1" />
    <inkscape:perspective
       sodipodi:type="inkscape:persp3d"
       inkscape:vp_x="0 : 12 : 1"
       inkscape:vp_y="0 : 1000 : 0"
       inkscape:vp_z="24 : 12 : 1"
       inkscape:persp3d-origin="12 : 8 : 1"
       id="perspective4146-96" />
    <clipPath
       clipPathUnits="userSpaceOnUse"
       id="clipPath16">
      <path
         d="m 0,706.465 1490.926,0 L 1490.926,0 0,0 0,706.465 Z"
         id="path18"
         inkscape:connector-curvature="0" />
    </clipPath>
    <clipPath
       clipPathUnits="userSpaceOnUse"
       id="clipPath24">
      <path
         d="m 22.1953,686.117 1447.7347,0 0,-667.1902 -1447.7347,0 0,667.1902 z"
         id="path26"
         inkscape:connector-curvature="0" />
    </clipPath>
  </defs>
  <sodipodi:namedview
     id="base"
     pagecolor="#ffffff"
     bordercolor="#666666"
     borderopacity="1.0"
     inkscape:pageopacity="0.0"
     inkscape:pageshadow="2"
     inkscape:zoom="11.313708"
     inkscape:cx="-20.87705"
     inkscape:cy="12.269921"
     inkscape:document-units="px"
     inkscape:current-layer="layer1"
     showgrid="true"
     fit-margin-top="0"
     fit-margin-left="0"
     fit-margin-right="0"
     fit-margin-bottom="0"
     inkscape:window-width="1366"
     inkscape:window-height="633"
     inkscape:window-x="0"
     inkscape:window-y="33"
     inkscape:window-maximized="1"
     inkscape:showpageshadow="false"
     inkscape:snap-bbox="true"
     inkscape:object-nodes="true">
    <inkscape:grid
       type="xygrid"
       id="grid4132" />
    <sodipodi:guide
       position="4,18"
       orientation="18,0"
       id="guide4138" />
    <sodipodi:guide
       position="5,3"
       orientation="0,18"
       id="guide4140" />
    <sodipodi:guide
       position="20,2.0000174"
       orientation="-18,0"
       id="guide4142" />
    <sodipodi:guide
       position="2,21"
       orientation="0,-18"
       id="guide4144" />
    <sodipodi:guide
       position="3,19.000017"
       orientation="16,0"
       id="guide4146" />
    <sodipodi:guide
       position="2,4"
       orientation="0,16"
       id="guide4148" />
    <sodipodi:guide
       position="21,20"
       orientation="-16,0"
       id="guide4150" />
    <sodipodi:guide
       position="2,20"
       orientation="0,-16"
       id="guide4152" />
  </sodipodi:namedview>
  <metadata
     id="metadata3874">
    <rdf:RDF>
      <cc:Work
         rdf:about="">
        <dc:format>image/svg+xml</dc:format>
        <dc:type
           rdf:resource="http://purl.org/dc/dcmitype/StillImage" />
        <dc:title />
      </cc:Work>
    </rdf:RDF>
  </metadata>
  <g
     inkscape:label="Capa 1"
     inkscape:groupmode="layer"
     id="layer1"
     transform="translate(-326,-534.3622)">
    <g
       id="g4162"
       transform="translate(-1,1.0000174)"
       style="fill:#ffffff;fill-opacity:1">
      <path
         style="opacity:1;fill:#ffffff;fill-opacity:1;fill-rule:evenodd;stroke:none;stroke-width:0.80000001;stroke-linecap:square;stroke-linejoin:miter;stroke-miterlimit:4;stroke-dasharray:none;stroke-dashoffset:0;stroke-opacity:1"
         d="M 3.5 3 C 3.223 3 3 3.223 3 3.5 L 3 18.5 C 3 18.777 3.223 19 3.5 19 L 18.5 19 C 18.777 19 19 18.777 19 18.5 L 19 3.5 C 19 3.223 18.777 3 18.5 3 L 3.5 3 z M 4.8125 4.0839844 A 0.75 0.75 0 0 1 5.5625 4.8339844 A 0.75 0.75 0 0 1 4.8125 5.5839844 A 0.75 0.75 0 0 1 4.0625 4.8339844 A 0.75 0.75 0 0 1 4.8125 4.0839844 z M 17.210938 4.0839844 A 0.75 0.75 0 0 1 17.960938 4.8339844 A 0.75 0.75 0 0 1 17.210938 5.5839844 A 0.75 0.75 0 0 1 16.460938 4.8339844 A 0.75 0.75 0 0 1 17.210938 4.0839844 z M 11 5 A 6 6 0 0 1 17 11 A 6 6 0 0 1 11 17 A 6 6 0 0 1 5 11 A 6 6 0 0 1 11 5 z M 11 8.5 A 2.5 2.5 0 0 0 8.5 11 A 2.5 2.5 0 0 0 11 13.5 A 2.5 2.5 0 0 0 13.5 11 A 2.5 2.5 0 0 0 11 8.5 z M 4.8125 16.484375 A 0.75 0.75 0 0 1 5.5625 17.234375 A 0.75 0.75 0 0 1 4.8125 17.984375 A 0.75 0.75 0 0 1 4.0625 17.234375 A 0.75 0.75 0 0 1 4.8125 16.484375 z M 17.210938 16.484375 A 0.75 0.75 0 0 1 17.960938 17.234375 A 0.75 0.75 0 0 1 17.210938 17.984375 A 0.75 0.75 0 0 1 16.460938 17.234375 A 0.75 0.75 0 0 1 17.210938 16.484375 z "
         transform="translate(327,533.36218)"
         id="rect4155" />
      <g
         style="fill:#ffffff;fill-opacity:1"
         transform="matrix(0.75,0,0,0.75,96.306996,137.22379)"
         id="g4191" />
      <g
         style="fill:#ffffff;fill-opacity:1"
         transform="matrix(0.75,0,0,0.75,108.705,137.22379)"
         id="g4191-6" />
    </g>
  </g>
</svg>

<svg xmlns="http://www.w3.org/2000/svg" viewBox="0 0 22 22"><defs><clipPath><path d="m0 706.47h1490.93v-706.47h-1490.93v706.47"/></clipPath><clipPath><path d="m22.2 686.12h1447.73v-667.19h-1447.73v667.19"/></clipPath></defs><path d="m3.5 3c-.277 0-.5.223-.5.5v15c0 .277.223.5.5.5h15c.277 0 .5-.223.5-.5v-15c0-.277-.223-.5-.5-.5h-15m1.3125 1.083984a.75 .75 0 0 1 .75 .75 .75 .75 0 0 1 -.75 .75 .75 .75 0 0 1 -.75 -.75 .75 .75 0 0 1 .75 -.75m12.398438 0a.75 .75 0 0 1 .75 .75 .75 .75 0 0 1 -.75 .75 .75 .75 0 0 1 -.75 -.75 .75 .75 0 0 1 .75 -.75m-6.210938.916016a6 6 0 0 1 6 6 6 6 0 0 1 -6 6 6 6 0 0 1 -6 -6 6 6 0 0 1 6 -6m0 3.5a2.5 2.5 0 0 0 -2.5 2.5 2.5 2.5 0 0 0 2.5 2.5 2.5 2.5 0 0 0 2.5 -2.5 2.5 2.5 0 0 0 -2.5 -2.5m-6.1875 7.984375a.75 .75 0 0 1 .75 .75 .75 .75 0 0 1 -.75 .75 .75 .75 0 0 1 -.75 -.75 .75 .75 0 0 1 .75 -.75m12.398438 0a.75 .75 0 0 1 .75 .75 .75 .75 0 0 1 -.75 .75 .75 .75 0 0 1 -.75 -.75 .75 .75 0 0 1 .75 -.75" transform="translate(0-.002)" fill="#fff" fill-rule="evenodd"/></svg>
